icons/baby_female_0203m_alt.svg

<svg width="48" height="48" viewBox="0 0 48 48" fill="none" xmlns="http://www.w3.org/2000/svg">
<path fill-rule="evenodd" clip-rule="evenodd" d="M13 17.917C15.8377 17.441 18 14.973 18 12C18 8.68629 15.3137 6 12 6C8.68629 6 6 8.68629 6 12C6 14.973 8.16229 17.441 11 17.917V20H9C8.44772 20 8 20.4477 8 21C8 21.5523 8.44772 22 9 22H11V25C11 25.5523 11.4477 26 12 26C12.5523 26 13 25.5523 13 25V22H15C15.5523 22 16 21.5523 16 21C16 20.4477 15.5523 20 15 20H13V17.917ZM16 12C16 14.2091 14.2091 16 12 16C9.79086 16 8 14.2091 8 12C8 9.79086 9.79086 8 12 8C14.2091 8 16 9.79086 16 12Z" fill="black"/>
<path fill-rule="evenodd" clip-rule="evenodd" d="M32.9999 18C36.3138 18 39 15.3138 39 12.0001C39 8.68635 36.3138 6 32.9999 6C29.6862 6 27 8.68635 27 12.0001C27 15.3138 29.6862 18 32.9999 18ZM37 12.0001C37 14.2092 35.2092 16 32.9999 16C30.7908 16 29 14.2092 29 12.0001C29 9.79088 30.7909 8 32.9999 8C35.2092 8 37 9.7909 37 12.0001Z" fill="black"/>
<path fill-rule="evenodd" clip-rule="evenodd" d="M41.4317 16.098C41.779 16.2642 42 16.615 42 17V34.0414C42 36.2299 41.3134 38.4679 39.8134 40.1734C38.2949 41.8998 36.0121 43 33 43C26.791 43 24 37.8335 24 34.0414V17.0006L24.6694 17.0002C23.9999 17.0003 24 17.0005 24 17.0006C24 16.6213 24.2146 16.274 24.5541 16.1049C24.8936 15.9358 25.2996 15.9733 25.6023 16.2018C28.8107 18.6227 31.0812 19.6601 33.174 19.6549C35.2561 19.6497 37.4061 18.6109 40.3727 16.2212C40.6725 15.9797 41.0844 15.9318 41.4317 16.098ZM32.7973 25.2802C30.3602 22.7128 27.869 20.5086 26 19.1256V24.1371C29.9051 27.2107 35.6049 32.9095 38.7732 38.257C39.4291 37.2951 39.8222 36.1455 39.952 34.9403C38.4363 31.8154 35.6954 28.3331 32.7973 25.2802ZM34.849 40.8159C31.9629 37.3665 28.6012 34.1843 26 32.1371V26.7215C29.802 29.9477 34.6975 35.0899 37.3251 39.7475C36.6499 40.2335 35.8301 40.6077 34.849 40.8159ZM26.0395 34.7551C26.3397 37.507 28.3591 40.6643 32.349 40.9751C30.2589 38.6046 27.9994 36.422 26.0395 34.7551ZM40 31.0194C38.3901 28.5649 36.332 26.0988 34.2479 23.9032C33.4725 23.0864 32.688 22.3013 31.9148 21.5627C32.3362 21.6249 32.7569 21.6559 33.1789 21.6549C35.4612 21.6492 37.6193 20.7051 40 19.0159V31.0194Z" fill="black"/>
</svg>

<svg
  xmlns="http://www.w3.org/2000/svg"
  width="24"
  height="24"
  viewBox="0 0 24 24"
  fill="none"
  stroke="currentColor"
  stroke-width="2"
  stroke-linecap="round"
  stroke-linejoin="round"
>
  <path
    fill-rule="evenodd"
    d="M13 17.917A6.002 6.002 0 0 0 12 6a6 6 0 0 0-1 11.917V20H9a1 1 0 1 0 0 2h2v3a1 1 0 1 0 2 0v-3h2a1 1 0 1 0 0-2h-2zM16 12a4 4 0 1 1-8 0 4 4 0 0 1 8 0"
    clip-rule="evenodd"
  />
  <path
    fill-rule="evenodd"
    d="M33 18a6 6 0 1 0 0-12 6 6 0 0 0 0 12m4-6a4 4 0 1 1-8 0 4 4 0 0 1 8 0"
    clip-rule="evenodd"
  />
  <path
    fill-rule="evenodd"
    d="M41.432 16.098A1 1 0 0 1 42 17v17.041c0 2.189-.687 4.427-2.187 6.132C38.295 41.9 36.013 43 33 43c-6.209 0-9-5.166-9-8.959v-17.04h.67H24a1 1 0 0 1 1.602-.8c3.209 2.422 5.48 3.46 7.572 3.454 2.082-.005 4.232-1.044 7.199-3.434a1 1 0 0 1 1.059-.123m-8.635 9.182C30.36 22.713 27.87 20.51 26 19.126v5.011c3.905 3.074 9.605 8.773 12.773 14.12.656-.962 1.05-2.111 1.179-3.317-1.516-3.125-4.257-6.607-7.155-9.66m2.052 15.536c-2.886-3.45-6.248-6.632-8.849-8.679v-5.416c3.802 3.227 8.697 8.369 11.325 13.027-.675.486-1.495.86-2.476 1.068m-8.81-6.06c.3 2.751 2.32 5.908 6.31 6.22a64 64 0 0 0-6.31-6.22M40 31.018c-1.61-2.454-3.668-4.92-5.752-7.116a68 68 0 0 0-2.333-2.34q.631.093 1.264.092c2.282-.006 4.44-.95 6.821-2.64z"
    clip-rule="evenodd"
  />
</svg>
